x-pack/solutions/observability/plugins/observability_onboarding/public/icons/universal_profiling.svg

<svg width="48" height="46" viewBox="0 0 48 46" fill="none" xmlns="http://www.w3.org/2000/svg">
<g clip-path="url(#clip0_305_179324)">
<path d="M46 0H2C0.89543 0 0 0.89543 0 2V18C0 19.1046 0.89543 20 2 20H46C47.1046 20 48 19.1046 48 18V2C48 0.89543 47.1046 0 46 0Z" fill="#F04E98"/>
<path d="M20 24H2C0.89543 24 0 24.8954 0 26V44C0 45.1046 0.89543 46 2 46H20C21.1046 46 22 45.1046 22 44V26C22 24.8954 21.1046 24 20 24Z" fill="#FEC514"/>
<path d="M45 25H29C27.8954 25 27 25.8954 27 27V43C27 44.1046 27.8954 45 29 45H45C46.1046 45 47 44.1046 47 43V27C47 25.8954 46.1046 25 45 25Z" stroke="#0077CC"/>
</g>
<defs>
<clipPath id="clip0_305_179324">
<rect width="48" height="46" fill="white"/>
</clipPath>
</defs>
</svg>

<svg xmlns="http://www.w3.org/2000/svg" width="48" height="46" fill="none"><g clip-path="url(#a)"><path fill="#F04E98" d="M46 0H2a2 2 0 0 0-2 2v16a2 2 0 0 0 2 2h44a2 2 0 0 0 2-2V2a2 2 0 0 0-2-2"/><path fill="#FEC514" d="M20 24H2a2 2 0 0 0-2 2v18a2 2 0 0 0 2 2h18a2 2 0 0 0 2-2V26a2 2 0 0 0-2-2"/><path stroke="#07C" d="M45 25H29a2 2 0 0 0-2 2v16a2 2 0 0 0 2 2h16a2 2 0 0 0 2-2V27a2 2 0 0 0-2-2Z"/></g><defs><clipPath id="a"><path fill="#fff" d="M0 0h48v46H0z"/></clipPath></defs></svg>
